svg/logo/drive_line.svg

<?xml version="1.0" encoding="UTF-8"?>
<svg width="24px" height="24px" viewBox="0 0 24 24" version="1.1" xmlns="http://www.w3.org/2000/svg" xmlns:xlink="http://www.w3.org/1999/xlink">
    <title>drive_line</title>
    <g id="Icon" stroke="none" stroke-width="1" fill="none" fill-rule="evenodd">
        <g id="Logo" transform="translate(-144.000000, -288.000000)">
            <g id="drive_line" transform="translate(144.000000, 288.000000)">
                <path d="M24,0 L24,24 L0,24 L0,0 L24,0 Z M12.5935,23.2578 L12.5819,23.2595 L12.5109,23.295 L12.4919,23.2987 L12.4767,23.295 L12.4057,23.2595 C12.3958,23.2564 12.387,23.259 12.3821,23.2649 L12.378,23.2758 L12.3609,23.7031 L12.3659,23.7235 L12.3769,23.7357 L12.4805,23.8097 L12.4953,23.8136 L12.5071,23.8097 L12.6107,23.7357 L12.6233,23.7197 L12.6267,23.7031 L12.6096,23.2758 C12.6076,23.2657 12.601,23.2593 12.5935,23.2578 Z M12.8584,23.1453 L12.8445,23.1473 L12.6598,23.2397 L12.6499,23.2499 L12.6472,23.2611 L12.6651,23.6906 L12.6699,23.7034 L12.6784,23.7105 L12.8793,23.8032 C12.8914,23.8069 12.9022,23.803 12.9078,23.7952 L12.9118,23.7812 L12.8777,23.1665 C12.8753,23.1546 12.8674,23.147 12.8584,23.1453 Z M12.143,23.1473 C12.1332,23.1424 12.1222,23.1453 12.1156,23.1526 L12.1099,23.1665 L12.0758,23.7812 C12.0751,23.7927 12.0828,23.8019 12.0926,23.8046 L12.1083,23.8032 L12.3092,23.7105 L12.3186,23.7024 L12.3225,23.6906 L12.3404,23.2611 L12.3372,23.2485 L12.3278,23.2397 L12.143,23.1473 Z" id="MingCute" fill-rule="nonzero"></path>
                <path d="M14.3096,3 C14.9691385,3 15.5824947,3.32480947 15.953902,3.86148311 L16.0416,4 L21.8151,14 C22.142625,14.5672333 22.1699187,15.2551306 21.8969812,15.8424745 L21.8151,16 L19.5057,20 C19.1759769,20.5712 18.5879911,20.9399479 17.9375092,20.9932985 L17.7737,21 L6.2266,21 C5.56703385,21 4.95371811,20.6751905 4.58226207,20.1385169 L4.49455,20 L2.18519,16.0001 C1.8576925,15.4328667 1.83040104,14.7449694 2.10331562,14.1576255 L2.18519,14.0001 L7.95872,4 C8.28850769,3.4288 8.87645586,3.06005207 9.52695521,3.0067015 L9.69077,3 L14.3096,3 Z M19.5057,16 L9.11309,16 L7.38104,19 L17.7737,19 L19.5057,16 Z M9.11352,5.99982 L3.91724,15.0001 L5.64912,17.9998 L10.8454,8.99954 L9.11352,5.99982 Z M14.3096,5 L10.8457,5 L16.0418,14 L19.5057,14 L14.3096,5 Z M12.0001,10.9995 L10.2678,14 L13.7324,14 L12.0001,10.9995 Z" id="形状" fill="#09244B"></path>
            </g>
        </g>
    </g>
</svg>

<svg xmlns="http://www.w3.org/2000/svg" width="24" height="24"><g fill="none" fill-rule="evenodd"><path d="M24 0v24H0V0h24ZM12.594 23.258l-.012.002-.071.035-.02.004-.014-.004-.071-.036c-.01-.003-.019 0-.024.006l-.004.01-.017.428.005.02.01.013.104.074.015.004.012-.004.104-.074.012-.016.004-.017-.017-.427c-.002-.01-.009-.017-.016-.018Zm.264-.113-.014.002-.184.093-.01.01-.003.011.018.43.005.012.008.008.201.092c.012.004.023 0 .029-.008l.004-.014-.034-.614c-.003-.012-.01-.02-.02-.022Zm-.715.002a.023.023 0 0 0-.027.006l-.006.014-.034.614c0 .012.007.02.017.024l.015-.002.201-.093.01-.008.003-.011.018-.43-.003-.012-.01-.01-.184-.092Z"/><path fill="#09244B" d="M14.31 3a2 2 0 0 1 1.644.861l.088.139 5.773 10a2 2 0 0 1 .082 1.842l-.082.158-2.31 4a2 2 0 0 1-1.567.993l-.164.007H6.227a2 2 0 0 1-1.645-.861L4.495 20l-2.31-4a2 2 0 0 1-.082-1.842L2.185 14 7.96 4a2 2 0 0 1 1.568-.993L9.691 3h4.619Zm5.196 13H9.113l-1.732 3h10.393l1.732-3ZM9.114 6l-5.197 9 1.732 3 5.196-9-1.731-3Zm5.196-1h-3.464l5.196 9h3.464L14.31 5ZM12 11l-1.732 3h3.464L12 11Z"/></g></svg>
